X:1
T:Title
%%score { ( 1 3 5 ) | ( 2 4 6 ) }
L:1/8
M:6/4
K:Bb
V:1 treble nm="Grand Piano"
V:3 treble 
V:5 treble 
V:2 bass 
V:4 bass 
V:6 bass 
V:1
 z6 z4[Q:1/4=108] [DF][CE] | D2 D2 D2 D2 [CE]2 [DF]2 | [EG]2 [DF]2 [B,D]2 [DF]4 [DF][FB] | %3
 A2 A2 A2 A2 G3 F | [DB]6- [DB]4 [B,DF][K:bass][F,CE] | %5
 [F,B,D]2 [F,B,D]2 [F,B,D]2 [F,B,D]2 [F,CE]2[K:treble] [B,DF]2 | %6
 [B,EG]2 [B,DF]2 [F,B,D]2 [B,DF]4 [B,DF][DFB] | [FA]2 [FA]2 [FA]2 [=Ec]2 [EB]3 [EG] | %8
[M:5/4] F2- F2- F6 |[M:1/4] F2 |[M:6/4] .d12 | F12 | [DB]2 [FB]2 [FB]2 [=EB]2 A3 G | c6- c4 FF | %14
 [DF]2 [B,D]2 [DF]2 [Fd]4 [DF][DF] | G2 E2 G2 [Ge]4 [Ge]2 | d2 F2 d2 c2 [=EG]3 [_EA] | %17
[M:5/4] [DB]2- [DB]2- [DB]6 |] %18
V:2
 z6 z4 [B,,B,][B,,F,] | [B,,F,B,]2 [B,,F,B,]2 [B,,F,B,]2 [B,,F,B,]2 [B,,F,]2 [B,,B,]2 | %2
 [B,,B,]2 [B,,B,]2 [B,,F,]2 [B,,B,]4 [B,,B,][D,B,] | %3
 [F,CE]2 [F,CE]2 [F,CE]2 [F,CE]2 [F,B,E]3 [F,A,E] | z6 B,4 B,,B,, | B,,2 B,,2 B,,2 B,,2 B,,2 B,,2 | %6
 B,,2 B,,2 B,,2 B,,4 B,,B,, | [C,C]2 [C,C]2 [C,C]2 [C,G,]2 [C,G,]3 [C,B,] | %8
[M:5/4] [F,A,]2- [F,A,]2- [F,A,]6 |[M:1/4][K:treble] D2 |[M:6/4] .F12[K:bass] | D12 | %12
 [B,,B,]2 [D,B,]2 [F,D]2 [C,C]2 [=E,C]3 [G,B,=E] | [F,A,F]6- [F,A,F]4 [F,A,E][F,A,E] | %14
 [B,,B,]2 [B,,F,]2 [B,,B,]2 [B,,B,]4 [B,,B,][B,,B,] | [E,B,E]2 [E,G,C]2 [E,B,E]2 [E,B,]4 [E,B,]2 | %16
 [F,B,F]2 [F,B,D]2 [F,B,F]2 [G,B,=E]2 [C,C]3 [F,C] |[M:5/4] [B,,B,]2- [B,,B,]2- [B,,B,]6 |] %18
V:3
 x12 | x12 | x12 | x12 | B,6 z6[K:bass] | x10[K:treble] x2 | x12 | x12 |[M:5/4] x10 |[M:1/4] x2 | %10
[M:6/4] z4 B,2 z2 B2 D2 | z4 B,2 B,4 [DF][DF] | x12 | x12 | x12 | x12 | x12 |[M:5/4] x10 |] %18
V:4
 x12 | x12 | x12 | x12 | B,,12 | x12 | x12 | x12 |[M:5/4] x10 |[M:1/4][K:treble] x2 | %10
[M:6/4] z4[K:bass] B,,2 z2 D2 B,2 | z4 B,,2 B,,4 [B,,B,][B,,B,] | x12 | x12 | x12 | x12 | x12 | %17
[M:5/4] x10 |] %18
V:5
 x12 | x12 | x12 | x12 | x11[K:bass] x | x10[K:treble] x2 | x12 | x12 |[M:5/4] x10 |[M:1/4] x2 | %10
[M:6/4] z6 .B,6 | x12 | x12 | x12 | x12 | x12 | x12 |[M:5/4] x10 |] %18
V:6
 x12 | x12 | x12 | x12 | x12 | x12 | x12 | x12 |[M:5/4] x10 |[M:1/4][K:treble] x2 | %10
[M:6/4] z6[K:bass] .B,,6 | x12 | x12 | x12 | x12 | x12 | x12 |[M:5/4] x10 |] %18

